web/ui/src/components/theme/workflow/svgs/rotate.svg

<svg height="24" viewBox="0 0 24 24" width="24" xmlns="http://www.w3.org/2000/svg"><g fill="none"><path d="m0 0h24v24h-24z" fill="#000" opacity="0"/><g fill="#526579"><path d="m20.9776786 22.75h-12.45535717c-.83035714 0-1.52232143-.6919643-1.52232143-1.5223214v-12.45535717c0-.83035714.69196429-1.52232143 1.52232143-1.52232143h12.45535717c.8303571 0 1.5223214.69196429 1.5223214 1.52232143v12.45535717c0 .8303571-.6919643 1.5223214-1.5223214 1.5223214zm-12.0776786-14.25c-.36399999 0-.65.28600001-.65.65v11.7c0 .364.28600001.65.65.65h11.7c.364 0 .65-.286.65-.65v-11.7c0-.36399999-.286-.65-.65-.65z"/><path d="m4.83382813 8.63507813c-.42820313-.2653125-.99023438-.13265625-1.25554688.29554687l-.425625.68742188c-.02039062-.19851563-.03117187-.40078125-.03117187-.60375 0-3.140625 2.555625-5.69601563 5.69695312-5.69601563 1.04625 0 2.0692969.2859375 2.9571094.82710938.4310156.26085937.991875.1246875 1.2536719-.30445313.2617968-.43007812.125625-.9909375-.3044532-1.25367187-1.1744531-.71507813-2.5251562-1.09265625-3.9063281-1.09265625-4.14679687 0-7.520625 3.37289062-7.520625 7.5196875 0 1.12828122.24398438 2.21273442.72398438 3.22335942.1434375.3009375.43992187.5003906.77296875.5182031.016875.0009375.03375.001875.05085937.001875.31586657 0 .60925432-.1634043.77554688-.4319531l1.50820312-2.4351563c.26460938-.4284375.13265625-.99023437-.29554687-1.25554687z" stroke="#fff" stroke-width=".6"/></g></g></svg>

<?xml version="1.0" encoding="UTF-8"?>
<svg width="24px" height="24px" viewBox="0 0 24 24" version="1.1" xmlns="http://www.w3.org/2000/svg" xmlns:xlink="http://www.w3.org/1999/xlink">
    <title>编组 9</title>
    <g id="页面-1" stroke="none" stroke-width="1" fill="none" fill-rule="evenodd">
        <g id="建木CI-项目详情页（流程/管道图）" transform="translate(-1842.000000, -1122.000000)" fill-rule="nonzero">
            <g id="编组-12" transform="translate(1533.000000, 1114.000000)">
                <g id="编组-15" transform="translate(309.000000, 8.000000)">
                    <rect id="矩形" fill="#000000" opacity="0" x="0" y="0" width="24" height="24"></rect>
                    <path d="M20.9776786,22.75 L8.52232143,22.75 C7.69196429,22.75 7,22.0580357 7,21.2276786 L7,8.77232143 C7,7.94196429 7.69196429,7.25 8.52232143,7.25 L20.9776786,7.25 C21.8080357,7.25 22.5,7.94196429 22.5,8.77232143 L22.5,21.2276786 C22.5,22.0580357 21.8080357,22.75 20.9776786,22.75 Z M8.9,8.5 C8.53600001,8.5 8.25,8.78600001 8.25,9.15 L8.25,20.85 C8.25,21.214 8.53600001,21.5 8.9,21.5 L20.6,21.5 C20.964,21.5 21.25,21.214 21.25,20.85 L21.25,9.15 C21.25,8.78600001 20.964,8.5 20.6,8.5 L8.9,8.5 Z" id="形状" fill="#526579"></path>
                    <path d="M4.83382813,8.63507813 C4.405625,8.36976563 3.84359375,8.50242188 3.57828125,8.930625 L3.15265625,9.61804688 C3.13226563,9.41953125 3.12148438,9.21726563 3.12148438,9.01429688 C3.12148438,5.87367188 5.67710938,3.31828125 8.8184375,3.31828125 C9.8646875,3.31828125 10.8877344,3.60421875 11.7755469,4.14539063 C12.2065625,4.40625 12.7674219,4.27007813 13.0292188,3.8409375 C13.2910156,3.41085938 13.1548438,2.85 12.7247656,2.58726563 C11.5503125,1.8721875 10.1996094,1.49460938 8.8184375,1.49460938 C4.67164063,1.49460938 1.2978125,4.8675 1.2978125,9.01429688 C1.2978125,10.1425781 1.54179688,11.2270313 2.02179688,12.2376563 C2.16523438,12.5385938 2.46171875,12.7380469 2.79476563,12.7558594 C2.81164063,12.7567969 2.82851563,12.7577344 2.845625,12.7577344 C3.16149157,12.7577344 3.45487932,12.5943301 3.62117188,12.3257813 L5.129375,9.890625 C5.39398438,9.4621875 5.26203125,8.90039063 4.83382813,8.63507813 Z" id="路径" stroke="#FFFFFF" stroke-width="0.6" fill="#526579"></path>
                </g>
            </g>
        </g>
    </g>
</svg>
